X:8820
T:La Beigneuse - Valse/Walzer/Waltz
C:traditionell
Z:abc transcription Simon Wascher
N:please mail errors to simon.wascher@chello.at
M:3/4
L:1/4
K:G
Bcd|GAB|EFA|G2F|
ABc|Aed|1cBA|B3:|2cEF|G3||
|:DED|c3|BAG|B3|
AGF|AGF|EGF|E2D|
DED|c3|BAG|B3|
AGF|Eed|cEF|G3:|


